images/50411583.svg

<?xml version="1.0" encoding="UTF-8"?>
<svg xmlns="http://www.w3.org/2000/svg" xmlns:xlink="http://www.w3.org/1999/xlink" width="300pt" height="300pt" viewBox="0 0 300 300" version="1.1">
<defs>
<g>
<symbol overflow="visible" id="glyph0-0">
<path style="stroke:none;" d="M 0.453125 1.59375 L 0.453125 -6.34375 L 4.953125 -6.34375 L 4.953125 1.59375 Z M 0.953125 1.09375 L 4.453125 1.09375 L 4.453125 -5.84375 L 0.953125 -5.84375 Z M 0.953125 1.09375 "/>
</symbol>
<symbol overflow="visible" id="glyph0-1">
<path style="stroke:none;" d="M 1.765625 -3.140625 L 1.765625 -0.734375 L 3.1875 -0.734375 C 3.664062 -0.734375 4.019531 -0.832031 4.25 -1.03125 C 4.476562 -1.226562 4.59375 -1.53125 4.59375 -1.9375 C 4.59375 -2.34375 4.476562 -2.644531 4.25 -2.84375 C 4.019531 -3.039062 3.664062 -3.140625 3.1875 -3.140625 Z M 1.765625 -5.828125 L 1.765625 -3.859375 L 3.078125 -3.859375 C 3.515625 -3.859375 3.835938 -3.9375 4.046875 -4.09375 C 4.265625 -4.257812 4.375 -4.507812 4.375 -4.84375 C 4.375 -5.175781 4.265625 -5.421875 4.046875 -5.578125 C 3.835938 -5.742188 3.515625 -5.828125 3.078125 -5.828125 Z M 0.890625 -6.5625 L 3.15625 -6.5625 C 3.832031 -6.5625 4.351562 -6.421875 4.71875 -6.140625 C 5.082031 -5.859375 5.265625 -5.457031 5.265625 -4.9375 C 5.265625 -4.539062 5.171875 -4.222656 4.984375 -3.984375 C 4.796875 -3.742188 4.519531 -3.59375 4.15625 -3.53125 C 4.59375 -3.4375 4.929688 -3.238281 5.171875 -2.9375 C 5.410156 -2.644531 5.53125 -2.28125 5.53125 -1.84375 C 5.53125 -1.25 5.332031 -0.789062 4.9375 -0.46875 C 4.539062 -0.15625 3.972656 0 3.234375 0 L 0.890625 0 Z M 0.890625 -6.5625 "/>
</symbol>
<symbol overflow="visible" id="glyph0-2">
<path style="stroke:none;" d="M 3.703125 -4.171875 C 3.609375 -4.222656 3.507812 -4.257812 3.40625 -4.28125 C 3.300781 -4.300781 3.179688 -4.3125 3.046875 -4.3125 C 2.585938 -4.3125 2.234375 -4.160156 1.984375 -3.859375 C 1.742188 -3.566406 1.625 -3.144531 1.625 -2.59375 L 1.625 0 L 0.8125 0 L 0.8125 -4.921875 L 1.625 -4.921875 L 1.625 -4.15625 C 1.800781 -4.457031 2.023438 -4.679688 2.296875 -4.828125 C 2.566406 -4.972656 2.894531 -5.046875 3.28125 -5.046875 C 3.34375 -5.046875 3.40625 -5.039062 3.46875 -5.03125 C 3.539062 -5.019531 3.617188 -5.007812 3.703125 -5 Z M 3.703125 -4.171875 "/>
</symbol>
<symbol overflow="visible" id="glyph0-3">
<path style="stroke:none;" d="M 0.890625 -6.5625 L 2.078125 -6.5625 L 4.984375 -1.078125 L 4.984375 -6.5625 L 5.84375 -6.5625 L 5.84375 0 L 4.65625 0 L 1.75 -5.484375 L 1.75 0 L 0.890625 0 Z M 0.890625 -6.5625 "/>
</symbol>
<symbol overflow="visible" id="glyph0-4">
<path style="stroke:none;" d="M 0.890625 -6.5625 L 1.765625 -6.5625 L 1.765625 -3.875 L 5 -3.875 L 5 -6.5625 L 5.890625 -6.5625 L 5.890625 0 L 5 0 L 5 -3.125 L 1.765625 -3.125 L 1.765625 0 L 0.890625 0 Z M 0.890625 -6.5625 "/>
</symbol>
<symbol overflow="visible" id="glyph0-5">
<path style="stroke:none;" d="M 3.546875 -5.953125 C 2.898438 -5.953125 2.382812 -5.710938 2 -5.234375 C 1.625 -4.753906 1.4375 -4.101562 1.4375 -3.28125 C 1.4375 -2.445312 1.625 -1.789062 2 -1.3125 C 2.382812 -0.832031 2.898438 -0.59375 3.546875 -0.59375 C 4.191406 -0.59375 4.703125 -0.832031 5.078125 -1.3125 C 5.453125 -1.789062 5.640625 -2.445312 5.640625 -3.28125 C 5.640625 -4.101562 5.453125 -4.753906 5.078125 -5.234375 C 4.703125 -5.710938 4.191406 -5.953125 3.546875 -5.953125 Z M 3.546875 -6.6875 C 4.460938 -6.6875 5.195312 -6.375 5.75 -5.75 C 6.300781 -5.132812 6.578125 -4.3125 6.578125 -3.28125 C 6.578125 -2.238281 6.300781 -1.410156 5.75 -0.796875 C 5.195312 -0.179688 4.460938 0.125 3.546875 0.125 C 2.617188 0.125 1.878906 -0.179688 1.328125 -0.796875 C 0.773438 -1.410156 0.5 -2.238281 0.5 -3.28125 C 0.5 -4.3125 0.773438 -5.132812 1.328125 -5.75 C 1.878906 -6.375 2.617188 -6.6875 3.546875 -6.6875 Z M 3.546875 -6.6875 "/>
</symbol>
<symbol overflow="visible" id="glyph1-0">
<path style="stroke:none;" d="M 0.40625 1.421875 L 0.40625 -5.640625 L 4.40625 -5.640625 L 4.40625 1.421875 Z M 0.84375 0.96875 L 3.953125 0.96875 L 3.953125 -5.1875 L 0.84375 -5.1875 Z M 0.84375 0.96875 "/>
</symbol>
<symbol overflow="visible" id="glyph1-1">
<path style="stroke:none;" d="M 3.6875 -5.015625 L 3.6875 -2.84375 L 5.859375 -2.84375 L 5.859375 -2.171875 L 3.6875 -2.171875 L 3.6875 0 L 3.03125 0 L 3.03125 -2.171875 L 0.84375 -2.171875 L 0.84375 -2.84375 L 3.03125 -2.84375 L 3.03125 -5.015625 Z M 3.6875 -5.015625 "/>
</symbol>
<symbol overflow="visible" id="glyph1-2">
<path style="stroke:none;" d="M 3.25 -3.140625 C 3.625 -3.066406 3.914062 -2.898438 4.125 -2.640625 C 4.34375 -2.390625 4.453125 -2.078125 4.453125 -1.703125 C 4.453125 -1.117188 4.253906 -0.671875 3.859375 -0.359375 C 3.460938 -0.046875 2.898438 0.109375 2.171875 0.109375 C 1.921875 0.109375 1.664062 0.0820312 1.40625 0.03125 C 1.15625 -0.0078125 0.890625 -0.078125 0.609375 -0.171875 L 0.609375 -0.9375 C 0.828125 -0.8125 1.066406 -0.710938 1.328125 -0.640625 C 1.585938 -0.578125 1.859375 -0.546875 2.140625 -0.546875 C 2.640625 -0.546875 3.019531 -0.644531 3.28125 -0.84375 C 3.539062 -1.039062 3.671875 -1.328125 3.671875 -1.703125 C 3.671875 -2.046875 3.546875 -2.3125 3.296875 -2.5 C 3.054688 -2.695312 2.722656 -2.796875 2.296875 -2.796875 L 1.625 -2.796875 L 1.625 -3.4375 L 2.328125 -3.4375 C 2.710938 -3.4375 3.007812 -3.515625 3.21875 -3.671875 C 3.425781 -3.828125 3.53125 -4.050781 3.53125 -4.34375 C 3.53125 -4.644531 3.421875 -4.875 3.203125 -5.03125 C 2.992188 -5.195312 2.691406 -5.28125 2.296875 -5.28125 C 2.078125 -5.28125 1.84375 -5.253906 1.59375 -5.203125 C 1.351562 -5.160156 1.082031 -5.085938 0.78125 -4.984375 L 0.78125 -5.6875 C 1.082031 -5.769531 1.363281 -5.832031 1.625 -5.875 C 1.882812 -5.914062 2.132812 -5.9375 2.375 -5.9375 C 2.96875 -5.9375 3.4375 -5.800781 3.78125 -5.53125 C 4.132812 -5.257812 4.3125 -4.890625 4.3125 -4.421875 C 4.3125 -4.097656 4.21875 -3.828125 4.03125 -3.609375 C 3.851562 -3.390625 3.59375 -3.234375 3.25 -3.140625 Z M 3.25 -3.140625 "/>
</symbol>
<symbol overflow="visible" id="glyph1-3">
<path style="stroke:none;" d="M 0.390625 -2.515625 L 2.5 -2.515625 L 2.5 -1.875 L 0.390625 -1.875 Z M 0.390625 -2.515625 "/>
</symbol>
</g>
</defs>
<g id="surface8945">
<rect x="0" y="0" width="300" height="300" style="fill:rgb(100%,100%,100%);fill-opacity:1;stroke:none;"/>
<path style="fill:none;stroke-width:1.2;stroke-linecap:butt;stroke-linejoin:miter;stroke:rgb(50%,30%,10%);stroke-opacity:1;stroke-miterlimit:10;" d="M 258.113281 197.132812 L 254.011719 186.199219 "/>
<path style="fill:none;stroke-width:1.2;stroke-linecap:butt;stroke-linejoin:miter;stroke:rgb(0%,0%,0%);stroke-opacity:1;stroke-miterlimit:10;" d="M 254.011719 186.199219 L 249.910156 175.261719 "/>
<path style=" stroke:none;fill-rule:nonzero;fill:rgb(100%,100%,100%);fill-opacity:1;" d="M 253.113281 191.632812 L 264.113281 191.632812 L 264.113281 202.632812 L 253.113281 202.632812 Z M 253.113281 191.632812 "/>
<g style="fill:rgb(50%,30%,10%);fill-opacity:1;">
  <use xlink:href="#glyph0-1" x="253.113281" y="200.295898"/>
  <use xlink:href="#glyph0-2" x="259.512695" y="200.295898"/>
</g>
<path style="fill:none;stroke-width:1.2;stroke-linecap:butt;stroke-linejoin:miter;stroke:rgb(0%,0%,0%);stroke-opacity:1;stroke-miterlimit:10;" d="M 249.910156 175.261719 L 226.867188 171.429688 "/>
<path style="fill:none;stroke-width:1.2;stroke-linecap:butt;stroke-linejoin:miter;stroke:rgb(0%,0%,0%);stroke-opacity:1;stroke-miterlimit:10;" d="M 248.507812 169.457031 L 230.074219 166.394531 "/>
<path style="fill:none;stroke-width:1.2;stroke-linecap:butt;stroke-linejoin:miter;stroke:rgb(0%,0%,0%);stroke-opacity:1;stroke-miterlimit:10;" d="M 264.75 157.222656 L 249.910156 175.261719 "/>
<path style="fill:none;stroke-width:1.2;stroke-linecap:butt;stroke-linejoin:miter;stroke:rgb(0%,0%,0%);stroke-opacity:1;stroke-miterlimit:10;" d="M 226.867188 171.429688 L 218.664062 149.558594 "/>
<path style="fill:none;stroke-width:1.2;stroke-linecap:butt;stroke-linejoin:miter;stroke:rgb(0%,0%,0%);stroke-opacity:1;stroke-miterlimit:10;" d="M 218.664062 149.558594 L 233.503906 131.519531 "/>
<path style="fill:none;stroke-width:1.2;stroke-linecap:butt;stroke-linejoin:miter;stroke:rgb(0%,0%,0%);stroke-opacity:1;stroke-miterlimit:10;" d="M 215.90625 144.265625 L 227.777344 129.832031 "/>
<path style="fill:none;stroke-width:1.2;stroke-linecap:butt;stroke-linejoin:miter;stroke:rgb(0%,0%,0%);stroke-opacity:1;stroke-miterlimit:10;" d="M 196.921875 141.023438 L 218.664062 149.558594 "/>
<path style="fill:none;stroke-width:1.2;stroke-linecap:butt;stroke-linejoin:miter;stroke:rgb(0%,0%,0%);stroke-opacity:1;stroke-miterlimit:10;" d="M 233.503906 131.519531 L 227.21875 121.675781 "/>
<path style="fill:none;stroke-width:1.2;stroke-linecap:butt;stroke-linejoin:miter;stroke:rgb(0%,0%,100%);stroke-opacity:1;stroke-miterlimit:10;" d="M 227.21875 121.675781 L 220.933594 111.832031 "/>
<path style="fill:none;stroke-width:1.2;stroke-linecap:butt;stroke-linejoin:miter;stroke:rgb(0%,0%,0%);stroke-opacity:1;stroke-miterlimit:10;" d="M 233.503906 131.519531 L 256.546875 135.351562 "/>
<path style="fill:none;stroke-width:1.2;stroke-linecap:butt;stroke-linejoin:miter;stroke:rgb(0%,0%,100%);stroke-opacity:1;stroke-miterlimit:10;" d="M 220.933594 111.832031 L 209.628906 114.769531 "/>
<path style="fill:none;stroke-width:1.2;stroke-linecap:butt;stroke-linejoin:miter;stroke:rgb(0%,0%,0%);stroke-opacity:1;stroke-miterlimit:10;" d="M 209.628906 114.769531 L 198.324219 117.707031 "/>
<path style=" stroke:none;fill-rule:nonzero;fill:rgb(100%,100%,100%);fill-opacity:1;" d="M 213.933594 106.332031 L 227.933594 106.332031 L 227.933594 117.332031 L 213.933594 117.332031 Z M 213.933594 106.332031 "/>
<g style="fill:rgb(0%,0%,100%);fill-opacity:1;">
  <use xlink:href="#glyph0-3" x="213.933594" y="114.995117"/>
  <use xlink:href="#glyph0-4" x="220.911133" y="114.995117"/>
</g>
<path style="fill:none;stroke-width:1.2;stroke-linecap:butt;stroke-linejoin:miter;stroke:rgb(0%,0%,0%);stroke-opacity:1;stroke-miterlimit:10;" d="M 200.070312 115.582031 L 191.050781 108.164062 "/>
<path style="fill:none;stroke-width:1.2;stroke-linecap:butt;stroke-linejoin:miter;stroke:rgb(100%,0%,0%);stroke-opacity:1;stroke-miterlimit:10;" d="M 191.050781 108.164062 L 182.03125 100.742188 "/>
<path style="fill:none;stroke-width:1.2;stroke-linecap:butt;stroke-linejoin:miter;stroke:rgb(0%,0%,0%);stroke-opacity:1;stroke-miterlimit:10;" d="M 196.578125 119.828125 L 187.558594 112.40625 "/>
<path style="fill:none;stroke-width:1.2;stroke-linecap:butt;stroke-linejoin:miter;stroke:rgb(100%,0%,0%);stroke-opacity:1;stroke-miterlimit:10;" d="M 187.558594 112.40625 L 178.539062 104.988281 "/>
<path style="fill:none;stroke-width:1.2;stroke-linecap:butt;stroke-linejoin:miter;stroke:rgb(0%,0%,0%);stroke-opacity:1;stroke-miterlimit:10;" d="M 198.324219 117.707031 L 196.921875 141.023438 "/>
<path style=" stroke:none;fill-rule:nonzero;fill:rgb(100%,100%,100%);fill-opacity:1;" d="M 172.285156 97.367188 L 180.285156 97.367188 L 180.285156 108.367188 L 172.285156 108.367188 Z M 172.285156 97.367188 "/>
<g style="fill:rgb(100%,0%,0%);fill-opacity:1;">
  <use xlink:href="#glyph0-5" x="172.285156" y="106.030273"/>
</g>
<path style="fill:none;stroke-width:1.2;stroke-linecap:butt;stroke-linejoin:miter;stroke:rgb(0%,0%,0%);stroke-opacity:1;stroke-miterlimit:10;" d="M 196.921875 141.023438 L 177.234375 153.59375 "/>
<path style="fill:none;stroke-width:1.2;stroke-linecap:butt;stroke-linejoin:miter;stroke:rgb(0%,0%,0%);stroke-opacity:1;stroke-miterlimit:10;" d="M 177.234375 153.59375 L 166.871094 148.210938 "/>
<path style="fill:none;stroke-width:1.2;stroke-linecap:butt;stroke-linejoin:miter;stroke:rgb(0%,0%,100%);stroke-opacity:1;stroke-miterlimit:10;" d="M 166.871094 148.210938 L 156.503906 142.828125 "/>
<path style="fill:none;stroke-width:1.2;stroke-linecap:butt;stroke-linejoin:miter;stroke:rgb(0%,0%,0%);stroke-opacity:1;stroke-miterlimit:10;" d="M 177.695312 147.640625 L 169.402344 143.332031 "/>
<path style="fill:none;stroke-width:1.2;stroke-linecap:butt;stroke-linejoin:miter;stroke:rgb(0%,0%,100%);stroke-opacity:1;stroke-miterlimit:10;" d="M 169.402344 143.332031 L 161.109375 139.027344 "/>
<path style="fill:none;stroke-width:1.2;stroke-linecap:butt;stroke-linejoin:miter;stroke:rgb(0%,0%,100%);stroke-opacity:1;stroke-miterlimit:10;" d="M 156.503906 142.828125 L 146.660156 149.113281 "/>
<path style="fill:none;stroke-width:1.2;stroke-linecap:butt;stroke-linejoin:miter;stroke:rgb(0%,0%,0%);stroke-opacity:1;stroke-miterlimit:10;" d="M 146.660156 149.113281 L 136.816406 155.398438 "/>
<path style=" stroke:none;fill-rule:nonzero;fill:rgb(100%,100%,100%);fill-opacity:1;" d="M 153.503906 137.328125 L 160.503906 137.328125 L 160.503906 148.328125 L 153.503906 148.328125 Z M 153.503906 137.328125 "/>
<g style="fill:rgb(0%,0%,100%);fill-opacity:1;">
  <use xlink:href="#glyph0-3" x="153.503906" y="145.991211"/>
</g>
<path style="fill:none;stroke-width:1.2;stroke-linecap:butt;stroke-linejoin:miter;stroke:rgb(0%,0%,0%);stroke-opacity:1;stroke-miterlimit:10;" d="M 136.816406 155.398438 L 116.085938 144.636719 "/>
<path style="fill:none;stroke-width:1.2;stroke-linecap:butt;stroke-linejoin:miter;stroke:rgb(0%,0%,0%);stroke-opacity:1;stroke-miterlimit:10;" d="M 116.085938 144.636719 L 96.398438 157.207031 "/>
<path style=" stroke:none;fill-rule:nonzero;fill:rgb(0%,0%,0%);fill-opacity:1;" d="M 75.667969 146.441406 L 94.5 160.863281 L 98.296875 153.546875 Z M 75.667969 146.441406 "/>
<path style="fill:none;stroke-width:1.2;stroke-linecap:butt;stroke-linejoin:miter;stroke:rgb(0%,0%,0%);stroke-opacity:1;stroke-miterlimit:10;" d="M 75.667969 146.441406 L 75.148438 134.773438 "/>
<path style="fill:none;stroke-width:1.2;stroke-linecap:butt;stroke-linejoin:miter;stroke:rgb(0%,0%,100%);stroke-opacity:1;stroke-miterlimit:10;" d="M 75.148438 134.773438 L 74.625 123.105469 "/>
<path style="fill:none;stroke-width:1.2;stroke-linecap:butt;stroke-linejoin:miter;stroke:rgb(0%,0%,0%);stroke-opacity:1;stroke-miterlimit:10;" d="M 75.667969 146.441406 L 55.980469 159.011719 "/>
<path style=" stroke:none;fill-rule:nonzero;fill:rgb(100%,100%,100%);fill-opacity:1;" d="M 61.625 113.605469 L 87.625 113.605469 L 87.625 132.605469 L 61.625 132.605469 Z M 61.625 113.605469 "/>
<g style="fill:rgb(0%,0%,100%);fill-opacity:1;">
  <use xlink:href="#glyph1-1" x="61.625" y="120.824219"/>
</g>
<g style="fill:rgb(0%,0%,100%);fill-opacity:1;">
  <use xlink:href="#glyph0-4" x="68.144531" y="125.707031"/>
</g>
<g style="fill:rgb(0%,0%,100%);fill-opacity:1;">
  <use xlink:href="#glyph1-2" x="75.15918" y="130.589844"/>
</g>
<g style="fill:rgb(0%,0%,100%);fill-opacity:1;">
  <use xlink:href="#glyph0-3" x="80.109375" y="125.707031"/>
</g>
<path style="fill:none;stroke-width:1.2;stroke-linecap:butt;stroke-linejoin:miter;stroke:rgb(0%,0%,0%);stroke-opacity:1;stroke-miterlimit:10;" d="M 53.234375 159.136719 L 53.757812 170.804688 "/>
<path style="fill:none;stroke-width:1.2;stroke-linecap:butt;stroke-linejoin:miter;stroke:rgb(100%,0%,0%);stroke-opacity:1;stroke-miterlimit:10;" d="M 53.757812 170.804688 L 54.277344 182.472656 "/>
<path style="fill:none;stroke-width:1.2;stroke-linecap:butt;stroke-linejoin:miter;stroke:rgb(0%,0%,0%);stroke-opacity:1;stroke-miterlimit:10;" d="M 58.726562 158.890625 L 59.246094 170.558594 "/>
<path style="fill:none;stroke-width:1.2;stroke-linecap:butt;stroke-linejoin:miter;stroke:rgb(100%,0%,0%);stroke-opacity:1;stroke-miterlimit:10;" d="M 59.246094 170.558594 L 59.769531 182.226562 "/>
<path style="fill:none;stroke-width:1.2;stroke-linecap:butt;stroke-linejoin:miter;stroke:rgb(0%,0%,0%);stroke-opacity:1;stroke-miterlimit:10;" d="M 55.980469 159.011719 L 45.617188 153.628906 "/>
<path style="fill:none;stroke-width:1.2;stroke-linecap:butt;stroke-linejoin:miter;stroke:rgb(100%,0%,0%);stroke-opacity:1;stroke-miterlimit:10;" d="M 45.617188 153.628906 L 35.25 148.25 "/>
<path style=" stroke:none;fill-rule:nonzero;fill:rgb(100%,100%,100%);fill-opacity:1;" d="M 53.023438 176.847656 L 61.023438 176.847656 L 61.023438 187.847656 L 53.023438 187.847656 Z M 53.023438 176.847656 "/>
<g style="fill:rgb(100%,0%,0%);fill-opacity:1;">
  <use xlink:href="#glyph0-5" x="53.023438" y="185.510742"/>
</g>
<path style=" stroke:none;fill-rule:nonzero;fill:rgb(100%,100%,100%);fill-opacity:1;" d="M 24.25 140.75 L 35.25 140.75 L 35.25 155.75 L 24.25 155.75 Z M 24.25 140.75 "/>
<g style="fill:rgb(100%,0%,0%);fill-opacity:1;">
  <use xlink:href="#glyph1-3" x="24.25" y="147.96875"/>
</g>
<g style="fill:rgb(100%,0%,0%);fill-opacity:1;">
  <use xlink:href="#glyph0-5" x="27.057617" y="152.851562"/>
</g>
<path style="fill:none;stroke-width:1.2;stroke-linecap:butt;stroke-linejoin:miter;stroke:rgb(0%,0%,0%);stroke-opacity:1;stroke-miterlimit:10;" d="M 256.546875 135.351562 L 264.75 157.222656 "/>
<path style="fill:none;stroke-width:1.2;stroke-linecap:butt;stroke-linejoin:miter;stroke:rgb(0%,0%,0%);stroke-opacity:1;stroke-miterlimit:10;" d="M 252.222656 139.46875 L 258.785156 156.964844 "/>
</g>
</svg>

<svg xmlns="http://www.w3.org/2000/svg" xmlns:xlink="http://www.w3.org/1999/xlink" width="300pt" height="300pt" viewBox="0 0 300 300"><defs><symbol overflow="visible"><path d="M.453 1.594v-7.938h4.5v7.938zm.5-.5h3.5v-6.938h-3.5zm0 0"/></symbol><symbol overflow="visible" id="a"><path d="M1.766-3.14v2.406h1.421c.477 0 .833-.098 1.063-.297.227-.197.344-.5.344-.907 0-.407-.117-.708-.344-.907-.23-.195-.586-.297-1.063-.297zm0-2.688v1.97h1.312c.438 0 .758-.08.97-.236.218-.164.327-.414.327-.75 0-.332-.11-.578-.328-.734-.21-.164-.53-.25-.97-.25zM.89-6.562h2.266c.676 0 1.196.14 1.563.42.362.283.546.685.546 1.205 0 .398-.094.714-.282.953-.187.242-.464.39-.828.453.438.092.774.292 1.016.592.238.293.36.657.36 1.094 0 .594-.2 1.055-.595 1.375-.398.314-.964.47-1.703.47H.89zm0 0"/></symbol><symbol overflow="visible" id="b"><path d="M3.703-4.172c-.094-.05-.195-.086-.297-.11-.105-.02-.226-.03-.36-.03-.46 0-.812.152-1.062.453-.242.294-.36.715-.36 1.266V0H.813v-4.922h.813v.766c.176-.3.398-.524.672-.672.27-.145.598-.22.984-.22.064 0 .126.01.19.017.07.01.147.022.233.03zm0 0"/></symbol><symbol overflow="visible" id="c"><path d="M.89-6.563H2.08l2.906 5.485v-5.484h.86V0H4.656L1.75-5.484V0H.89zm0 0"/></symbol><symbol overflow="visible" id="d"><path d="M.89-6.563h.876v2.688H5v-2.688h.89V0H5v-3.125H1.766V0H.89zm0 0"/></symbol><symbol overflow="visible" id="e"><path d="M3.547-5.953c-.65 0-1.164.242-1.547.72-.375.48-.563 1.13-.563 1.952 0 .835.188 1.49.563 1.967.383.48.898.72 1.547.72.644 0 1.156-.24 1.53-.72.376-.476.564-1.132.564-1.968 0-.822-.187-1.474-.562-1.954-.375-.477-.887-.72-1.53-.72zm0-.734c.914 0 1.648.312 2.203.937.55.617.828 1.438.828 2.47 0 1.042-.277 1.87-.828 2.483-.555.617-1.29.922-2.203.922-.93 0-1.668-.305-2.22-.922C.774-1.41.5-2.237.5-3.28c0-1.033.273-1.853.828-2.47.55-.625 1.29-.938 2.22-.938zm0 0"/></symbol><symbol overflow="visible"><path d="M.406 1.422V-5.64h4V1.42zM.844.97h3.11v-6.157H.843zm0 0"/></symbol><symbol overflow="visible" id="f"><path d="M3.688-5.016v2.172h2.17v.672H3.69V0H3.03v-2.172H.845v-.672H3.03v-2.172zm0 0"/></symbol><symbol overflow="visible" id="g"><path d="M3.25-3.14c.375.074.664.242.875.5.22.25.328.562.328.937 0 .586-.2 1.03-.594 1.344-.4.313-.962.47-1.688.47-.25 0-.508-.028-.766-.08C1.156-.007.89-.077.61-.17v-.766c.218.125.456.227.718.297.258.062.53.093.813.093.5 0 .88-.098 1.14-.297.26-.195.392-.484.392-.86 0-.343-.125-.61-.375-.796-.242-.195-.574-.297-1-.297h-.672v-.64h.703c.383 0 .68-.08.89-.235.208-.156.313-.38.313-.672 0-.3-.108-.53-.327-.687-.21-.165-.512-.25-.906-.25-.22 0-.453.026-.703.077-.242.043-.512.117-.813.22v-.705c.302-.082.583-.144.845-.187.258-.04.508-.063.75-.063.594 0 1.063.137 1.406.407.353.272.533.64.533 1.108 0 .324-.094.594-.282.813-.178.22-.436.376-.78.47zm0 0"/></symbol><symbol overflow="visible" id="h"><path d="M.39-2.516H2.5v.64H.39zm0 0"/></symbol></defs><g><path fill="#fff" d="M0 0h300v300H0z"/><path d="M258.113 197.133l-4.1-10.934" stroke-width="1.2" stroke="#7f4d1a" stroke-miterlimit="10" fill="none"/><path d="M254.012 186.2l-4.102-10.938" stroke-width="1.2" stroke="#000" stroke-miterlimit="10" fill="none"/><path d="M253.113 191.633h11v11h-11zm0 0" fill="#fff"/><g fill="#7f4d1a"><use xlink:href="#a" x="253.113" y="200.296"/><use xlink:href="#b" x="259.513" y="200.296"/></g><path d="M249.91 175.262l-23.043-3.832M248.508 169.457l-18.434-3.062M264.75 157.223l-14.84 18.04M226.867 171.43l-8.203-21.87M218.664 149.56l14.84-18.04M215.906 144.266l11.87-14.434M196.922 141.023l21.742 8.536M233.504 131.52l-6.285-9.844" stroke-width="1.2" stroke="#000" stroke-miterlimit="10" fill="none"/><path d="M227.22 121.676l-6.286-9.844" stroke-width="1.2" stroke="#00f" stroke-miterlimit="10" fill="none"/><path d="M233.504 131.52l23.043 3.832" stroke-width="1.2" stroke="#000" stroke-miterlimit="10" fill="none"/><path d="M220.934 111.832l-11.305 2.938" stroke-width="1.2" stroke="#00f" stroke-miterlimit="10" fill="none"/><path d="M209.63 114.77l-11.306 2.937" stroke-width="1.2" stroke="#000" stroke-miterlimit="10" fill="none"/><path d="M213.934 106.332h14v11h-14zm0 0" fill="#fff"/><g fill="#00f"><use xlink:href="#c" x="213.934" y="114.995"/><use xlink:href="#d" x="220.911" y="114.995"/></g><path d="M200.07 115.582l-9.02-7.418" stroke-width="1.2" stroke="#000" stroke-miterlimit="10" fill="none"/><path d="M191.05 108.164l-9.02-7.422" stroke-width="1.2" stroke="#f00" stroke-miterlimit="10" fill="none"/><path d="M196.578 119.828l-9.02-7.422" stroke-width="1.2" stroke="#000" stroke-miterlimit="10" fill="none"/><path d="M187.56 112.406l-9.02-7.418" stroke-width="1.2" stroke="#f00" stroke-miterlimit="10" fill="none"/><path d="M198.324 117.707l-1.402 23.316" stroke-width="1.2" stroke="#000" stroke-miterlimit="10" fill="none"/><path d="M172.285 97.367h8v11h-8zm0 0" fill="#fff"/><use xlink:href="#e" x="172.285" y="106.03" fill="#f00"/><path d="M196.922 141.023l-19.688 12.57M177.234 153.594l-10.363-5.383" stroke-width="1.2" stroke="#000" stroke-miterlimit="10" fill="none"/><path d="M166.87 148.21l-10.366-5.382" stroke-width="1.2" stroke="#00f" stroke-miterlimit="10" fill="none"/><path d="M177.695 147.64l-8.293-4.308" stroke-width="1.2" stroke="#000" stroke-miterlimit="10" fill="none"/><path d="M169.402 143.332l-8.293-4.305M156.504 142.828l-9.844 6.285" stroke-width="1.2" stroke="#00f" stroke-miterlimit="10" fill="none"/><path d="M146.66 149.113l-9.844 6.285" stroke-width="1.2" stroke="#000" stroke-miterlimit="10" fill="none"/><path d="M153.504 137.328h7v11h-7zm0 0" fill="#fff"/><use xlink:href="#c" x="153.504" y="145.991" fill="#00f"/><path d="M136.816 155.398l-20.73-10.76M116.086 144.637l-19.688 12.57" stroke-width="1.2" stroke="#000" stroke-miterlimit="10" fill="none"/><path d="M75.668 146.44L94.5 160.864l3.797-7.316zm0 0"/><path d="M75.668 146.44l-.52-11.667" stroke-width="1.2" stroke="#000" stroke-miterlimit="10" fill="none"/><path d="M75.148 134.773l-.523-11.668" stroke-width="1.2" stroke="#00f" stroke-miterlimit="10" fill="none"/><path d="M75.668 146.44L55.98 159.013" stroke-width="1.2" stroke="#000" stroke-miterlimit="10" fill="none"/><path d="M61.625 113.605h26v19h-26zm0 0" fill="#fff"/><use xlink:href="#f" x="61.625" y="120.824" fill="#00f"/><use xlink:href="#d" x="68.145" y="125.707" fill="#00f"/><use xlink:href="#g" x="75.159" y="130.59" fill="#00f"/><use xlink:href="#c" x="80.109" y="125.707" fill="#00f"/><path d="M53.234 159.137l.524 11.668" stroke-width="1.2" stroke="#000" stroke-miterlimit="10" fill="none"/><path d="M53.758 170.805l.52 11.668" stroke-width="1.2" stroke="#f00" stroke-miterlimit="10" fill="none"/><path d="M58.727 158.89l.52 11.67" stroke-width="1.2" stroke="#000" stroke-miterlimit="10" fill="none"/><path d="M59.246 170.56l.524 11.667" stroke-width="1.2" stroke="#f00" stroke-miterlimit="10" fill="none"/><path d="M55.98 159.012l-10.363-5.383" stroke-width="1.2" stroke="#000" stroke-miterlimit="10" fill="none"/><path d="M45.617 153.63l-10.367-5.38" stroke-width="1.2" stroke="#f00" stroke-miterlimit="10" fill="none"/><path d="M53.023 176.848h8v11h-8zm0 0" fill="#fff"/><use xlink:href="#e" x="53.023" y="185.511" fill="#f00"/><path d="M24.25 140.75h11v15h-11zm0 0" fill="#fff"/><use xlink:href="#h" x="24.25" y="147.969" fill="#f00"/><use xlink:href="#e" x="27.058" y="152.852" fill="#f00"/><path d="M256.547 135.352l8.203 21.87M252.223 139.47l6.562 17.495" stroke-width="1.2" stroke="#000" stroke-miterlimit="10" fill="none"/></g></svg>
